X: 31851
T: Paul's
R: jig
M: 6/8
K: Gmajor
|:Bc^c|dcd edc|dBG D2 G|B2 d c2 B|A E2- EFG|
A2 B A2 G|FDF d3|1 d^cd ed=c|B3-:|2 d^cd edF|G3- G||
|:dc|B2 D BDD|B3- B2 A|GAB dcB|c3- cAB|
ced cBA|GFE D2 ^c|1 d^cd ed=c|B3- B:|2 d^cd edF|G3||

